!!!!SEGMENT: pl-wtm--r-2012--002_smietanski-emil-wladyslaw--polonaise-op-28.krn
!!!cenid: 18xx:1996
!!!COM: Śmietański, Emil Władysław
!!!COM-rismid: pe50041781
!!!CDT: 1845-1886
!!!CNT: Polish
!!!OTL: Polonaise op. 28
!!!PDT: 1866
!!!AGN: Secular
!!!SMS-siglum: PL-Wtm
!!!SMS-shelfmark: R 2012
!!!SMS-shelfwork: 002 W
!!!SMS-variant:
!!!SMS-altvar:
!!!NIFC-rismid: 1001112210
!!!URL-scan: http://repozytorium.nifc.pl/skany/pl-wtm-nut--r2012
!!!ONB-nifc: UWAGA: w zbiorze 1. Saltarella i 2. Polonaise
**kern	**kern	**dynam
*part1	*part1	*part1
*staff2	*staff1	*
*Iforte	*Iforte	*
*I"Fortepian	*I"Fortepian	*
*I'pf	*I'pf	*
*clefF4	*clefG2	*
*k[]	*k[]	*
*C:	*C:	*
*M3/4	*M3/4	*
*>[A,B,C,A,B,A,D,E]	*>[A,B,C,A,B,A,D,E]	*>[A,B,C,A,B,A,D,E]
=1	=1	=1
*>A	*>A	*>A
!	!LO:TX:a:i:t=Tempo giusto.	!
4r	16g/LL	.
.	16a/	.
.	16gM</	.
!	!LO:TX:b:i:t=risoluto	!
.	16f#X/JJ	.
8.GG/L	8.g/L	.
*clefG2	*	*
16bJk 16g/	16ggJk 16dd/	.
4a#X 4e/	8ggL 8dd/	.
.	8cc#X/J	.
*clefF4	*	*
=2	=2	=2
4r	16g/LL	f
.	16a/	.
.	16gM</	.
.	16f#X/JJ	.
8.GG/L	8.g/L	.
*clefG2	*	*
16a#XJk 16e/	16ff#XJk 16cc#X/	.
4an 4d#X/	8ff#L 8cc#/	.
.	8ccn/J	.
*clefF4	*	*
=3	=3	=3
4r	16g/LL	.
.	16a/	.
.	16gM</	.
.	16f#X/JJ	.
8.E/L	8.g/L	.
*clefG2	*	*
16anJk 16d#X/	16ffnJk 16ccn/	.
4g#X 4dn/	8ffL 8cc/	.
.	8b/J	.
=4	=4	=4
4gn 4c#X/	8eeL 8b/	.
.	8a/J	.
*clefF4	*	*
4f#X 4cn 4D\	8ddL 8b/	.
.	8a/J	.
4GG;\	8.dd:L 8.a: 8.f#X: 8.B;<:/	.
!LO:TX:a:t=[segno]:problem:znak segno na kresce taktowej	!LO:TX:a:t=[segno]:problem:znak segno na kresce taktowej	!
.	16g/Jk	.
=5||	=5||	=5||
*>B	*>B	*>B
8C\L	16g\LL	f
.	16a\	.
8eJ 8G\	16gM\	.
.	16f#X\JJ	.
8eL 8G\	8g\	.
8eJ 8G\	4ee\	.
4e 4G\	.	.
.	8cc\	.
!!LO:LB:g=original
=6	=6	=6
8C\L	16g\LL	.
.	16a\	.
8eJ 8G\	16gM\	.
.	16f#X\JJ	.
8eL 8G\	8g\	.
16eL 16G\	4gg\	.
16eJJ 16G\	.	.
4e 4G\	.	.
.	8ee\	.
=7	=7	=7
8E\L	16cc\LL	.
.	16dd\	.
8gJ 8c 8G\	16ccM\	.
.	16b\JJ	.
8gL 8c 8G\	8cc\	.
16gL 16c 16G\	4ccc\	.
16gJJ 16c 16G\	.	.
4g 4c 4G\	.	.
.	8bb\	.
=8	=8	=8
.	32qqbb\	.
8D\L	16aa\LL	.
.	16gg#X\	.
8fJ 8A 8G\	16aa\	.
.	16ff\JJ	.
.	32qqgg#\	.
8D\L	16ff\LL	.
.	16ee\	.
8fJ 8B-X 8G\	16ff\	.
.	16dd\JJ	.
.	32qqee\	.
8GG\L	16dd\LL	.
.	16cc#X\	.
8fJ 8Bn 8G\	16dd\	.
.	16a\JJ	.
=9	=9	=9
8C\L	16g/LL	.
.	16a/	.
8eJ 8G\	16gM</	.
.	16f#X/JJ	.
8eL 8G\	8g/	.
8eJ 8G\	4ee/	.
8e 8G\	.	.
8r	8cc/	.
=10	=10	=10
8C\L	16cc/LL	.
.	16dd/	.
!	!LO:TX:b:i:t=poco rit.	!
8eJ 8A#X\	16ccM</	.
.	16b/JJ	.
8eL 8A#\	8cc/	.
*clefG2	*	*
8a#XJ 8e\	4ccc\	.
4a# 4e\	.	.
.	8aa#X\	.
!!LO:LB:g=original
=11	=11	=11
!	!LO:TX:b:i:t=a tempo	!
.	32qqccc\	.
8B/L	16bb\LL	.
.	16aa#X\	.
8gJ 8e/	16bb\	.
.	16gg\JJ	.
.	32qqaa#\	.
8B/L	16gg\LL	.
.	16ff#X\	.
!LO:TX:a:t=P:problem:8a skreślone ołówkiem i dopisane 8g	!	!
8aJ 8e/	16gg\	.
.	16ee\JJ	.
.	32qqff#\	.
8B/L	16ee\LL	.
.	16dd#X\	.
!LO:TX:a:t=P:problem:8a# skreślone ołówkiem i dopisane 8g	!	!
8a#XJ 8e/	16ee\	.
.	16cc\JJ	.
*clefF4	*	*
=12	=12	=12
.	32qqcc/	.
8BB\L	16b\LL	.
.	16a#X\	.
8aJ 8d#X\	16b\	.
.	16gg\JJ	.
8r	4ff#X 4b 4an\	.
8BB\L	.	.
8E\J	8ee 8b 8g\	.
8r	8r	.
=13	=13	=13
!LO:TX:t=P:problem:mixed beam	!	!
8CC/L	16g/LL	ff
.	16a/	.
8eJ 8c 8G 8E\	16gM</	.
.	16f#X/JJ	.
8eL 8c 8G 8E\	8g/	.
8eJ 8c 8G 8E\	4ee\	.
4e 4c 4G 4E\	.	.
.	8cc\	.
=14	=14	=14
!LO:TX:t=P:problem:mixed beam	!	!
8CL 8CC/	16g/LL	.
.	16a/	.
8eJ 8c 8G 8E\	16gM</	.
.	16f#X/JJ	.
8eL 8c 8G 8E\	8g/	.
8eJ 8c 8G 8E\	4gg\	.
4e 4c 4G 4E\	.	.
.	8ee\	.
=15	=15	=15
8EL 8EE\	16cc\LL	.
.	16dd\	.
8eJ 8c 8G\	16ccM\	.
.	16b\JJ	.
8eL 8c 8G\	8cc\	.
8eJ 8c 8G\	4ccc\	.
4e 4c 4G\	.	.
.	8bb\	.
=16	=16	=16
!LO:TX:t=P:problem:mixed beam	!	!
.	32qqbb/	.
8DL 8DD/	16aa\LL	.
.	16gg#X\	.
8fJ 8A 8G\	16aa\	.
.	16ff\JJ	.
.	32qqgg#X/	.
8fL 8A 8G\	16ff\LL	.
.	16ee\	.
8fJ 8B-X 8G\	16ff\	.
.	16dd\JJ	.
.	32qqee/	.
8fL 8B- 8G\	16dd\LL	.
.	16cc#X\	.
8fJ 8Bn 8G\	16dd\	.
.	16a\JJ	.
=17	=17	=17
!LO:TX:t=P:problem:mixed beam	!	!
8CL 8CC/	16g/LL	.
.	16a/	.
8eJ 8c 8G 8E\	16gM</	.
.	16f#X/JJ	.
8eL 8c 8G 8E\	8g/	.
8eJ 8c 8G 8E\	4ee\	.
4e 4c 4G 4E\	.	.
.	8cc\	.
!!LO:LB:g=original
=18	=18	=18
8AL 8AA\	16cc\LL	.
.	16dd\	.
8aJ 8e 8c\	16ccM\	.
.	16b\JJ	.
8aL 8e 8c\	8cc\	.
8aJ 8e-X 8c\	4ccc\	.
4a 4d 4c\	.	.
.	8ff#X\	.
=19	=19	=19
.	32qqaa\	.
8G\L	16gg\LL	.
.	16ff#X\	.
8gJ 8e 8c\	16gg\	.
.	16ee\JJ	.
.	32qqffn\	.
8G\L	16ee\LL	.
.	16dd#X\	.
8g#XJ 8e 8c\	16ee\	.
.	16cc\JJ	.
.	32qqddn/	.
8G\L	16cc\LL	.
.	16b\	.
8aJ 8f 8c\	16cc\	.
.	16a\JJ	.
=20	=20	=20
.	32qqa/	.
8DL 8GG\	16g/LL	.
.	16f#X/	.
8BJ 8G 8F\	16g/	.
.	16ee/JJ	.
(4B 4G 4F\	(>4dd 4g/	.
!	!LO:TX:b:i:t=Fine	!
8c 8E 8C\)	8cc'/)	.
8r	8r	.
=21||	=21||	=21||
*>C	*>C	*>C
8.dL 8.D\	8.ccL 8.f#X\	p
16dJk 16E-X\	16ccJk 16f#\	.
8dL 8En\	8ccL 8g\	.
8d 8F\	8cc 8g#X\	.
8d 8F#X\	8cc 8a\	.
!	!LO:TX:b:i:t=dolce	!
8dJ 8D\	8ccJ 8f#\	.
=22	=22	=22
8GG\L	8.bL 8.g\	.
8BJ 8D\	.	.
.	16dd\Jk	.
8BL 8D\	4.gg\	.
8BJ 8D\	.	.
4B 4D\	.	.
.	8b\	.
=23	=23	=23
8C\L	8b\L	.
8eJ 8A\	8a\J	.
8C#X\L	8ff#X\L	.
8gJ 8A\	8ee\J	.
8D\L	8dd\L	.
!LO:TX:a:t=P:problem:8cn skreślone ołówkiem i dopisane 8d	!	!
8fJ 8cn\	8cc\J	.
=24	=24	=24
8GG/L	16b\LL	.
.	16cc\	.
*clefG2	*	*
!LO:TX:a:t=P:problem:8c# skreślone ołówkiem i dopisane 8g	!	!
8b-XJ 8c#X/	16cc#X\	.
.	16ee\JJ	.
!LO:TX:a:t=P:problem:8d skreślone ołówkiem i dopisane 8g	!	!
8bnL 8d/	4.dd\	.
8d/J	.	.
*clefF4	*	*
4D\	.	.
.	8b 8g\	.
=25	=25	=25
8.dL 8.D\	8.ccL 8.f#X\	.
16dJk 16E-X\	16ccJk 16f#\	.
8dL 8En\	8ccL 8g\	.
8d 8F\	8cc 8g#X\	.
8d 8F#X\	8cc 8a\	.
8dJ 8D\	8ccJ 8f#\	.
!!LO:LB:g=original
=26	=26	=26
8GG\L	8.bL 8.g\	.
8BJ 8D\	.	.
.	16dd\Jk	.
8BL 8D\	4.gg\	.
8BJ 8D\	.	.
4B 4D\	.	.
.	8ee\	.
=27	=27	=27
8AA\L	8dd\L	.
!	!LO:TX:b:i:t=espress. e rit.	!
8gJ 8A\	8cc#X\J	.
8gL 8B\	8bb\L	.
8gJ 8c\	8aa\J	.
8gL 8c#X\	8gg\L	.
8gJ 8A\	8cc#X\J	.
=28	=28	=28
8D\L	8cc#X\L	.
8f#XJ 8A\	8dd\J	.
8D\L	8ff#X\L	.
8f#J 8A#X\	8ee\J	.
8D\L	8dd\L	.
8B\J	8bJ 8g\	.
=29	=29	=29
!LO:TX:t=P:problem:mixed beam	!LO:TX:b:i:t=a tempo	!
8.DD/L	8.ccL 8.f#X\	.
16dJk 16D\	16ccJk 16f#\	.
8dL 8E\	8ccL 8g\	.
8d 8F\	8cc 8g#X\	.
8d 8F#X\	8cc 8a\	.
8dJ 8D\	8ccJ 8f#\	.
=30	=30	=30
8GG\L	8.bL 8.g\	f
8BJ 8D\	.	.
!	!LO:TX:b:i:t=risoluto	!
.	16dd\Jk	.
8.BL 8.D\	4.gg\	.
16d^^\Jk	.	.
4g^^\	.	.
.	8b\	.
=31	=31	=31
8C\L	8b\L	.
8eJ 8A\	8a\J	.
8C#X\L	8ff#X\L	.
8gJ 8A\	8ee\J	.
8D\L	8dd\L	.
!LO:TX:a:t=P:problem:poskreślany akord	!	!
8f#XJ 8cn\	8cc\J	.
=32	=32	=32
8GG\L	16b\LL	.
.	16cc\	.
!LO:TX:a:t=P:problem:8C# skreślone ołówkiem i dopisane 8G	!	!
8B-XJ 8C#X\	16cc#X\	.
.	16ee\JJ	.
!LO:TX:a:t=P:problem:16D skreślone ołówkiem i dopisane 16G	!	!
16BnLL 16D^^\	4.dd\	.
16c^^\	.	.
16c#X\	.	.
16e^^\JJ	.	.
8d\L	.	.
!LO:TX:t=P:problem:strzałka łącząca pion w obu rękach	!	!
8D\J	8b 8g\	.
=33	=33	=33
8.DD\L	8.ccL 8.f#X\	.
16dJk 16D\	16ccJk 16f#\	.
8dL 8E\	8ccL 8g\	.
8d 8F\	8cc 8g#X\	.
8d 8F#X\	8cc 8a\	.
8dJ 8D\	8ccJ 8f#\	.
!!LO:LB:g=original
=34	=34	=34
8GG\L	8.bL 8.g\	.
*clefG2	*	*
8bJ 8d\	.	.
.	16gg\Jk	.
!	!LO:TX:b:t=cresc.-en-do-s.:problem:dynamics with extention lines	!LO:HP:t=cresc.-en-do-s.
8bL 8d\	4.gg\	<
8bJ 8d\	.	.
4b 4d\	.	.
.	8b\	.
*clefF4	*	*
=35	=35	=35
8.EE\L	8.ddL 8.g#X\	.
16eJk 16E\	16ddJk 16g#\	.
8eL 8F#X\	8ddL 8a\	.
8e 8G\	8dd 8a#X\	.
8e 8G#X\	8dd 8b\	.
8eJ 8E\	8ddJ 8g#\	.
=36	=36	=36
8AA\L	8.cc#XL 8.a\	.
*clefG2	*	*
8cc#XJ 8e\	.	.
.	16aa\Jk	.
8cc#L 8e\	4.aa\	.
8cc#J 8e\	.	.
4cc# 4e\	.	[
!	!	!LO:DY:t=p
.	8aa\	p
=37	=37	=37
8A\L	4.ff#X 4.ee\	pp
8ccJ 8e\	.	.
8A\L	.	.
8ccJ 8e\	8ff#L 8ee\	.
.	32qqaa/	.
8A#X\L	8gg 8ee\	.
8ccJ 8e\	8ff#J 8ee\	.
=38	=38	=38
8B\L	8bbL 8dd#X\	.
8bJ 8d#X\	16ff#XL 16dd#\	.
.	16ff#JJ 16dd#\	.
8bL 8d#\	8ff#L 8dd#\	.
8bJ 8d#\	8bbJ 8dd#\	.
8c\L	4aa#X 4eeTT\	.
8a#XJ 8e\	.	.
=39	=39	=39
8B/L	8bbL 8dd#X\	.
8bJ 8d#X/	16ffL 16dd#\	.
.	16ffJJ 16dd#\	.
8bL 8d#/	8ffL 8dd#\	.
8bJ 8d#/	8bbJ 8dd#\	.
8A/L	4ccc 4eett\	.
8ccJ 8e/	.	.
=40	=40	=40
8B/L	8bbL 8dd#X\	.
8bJ 8d#X/	16ff#XL 16dd#\	<
.	16ff#JJ 16dd#\	.
8bL 8d#/	8ff#L 8dd#\	.
8bJ 8d#/	8bbJ 8dd#\	.
8c/L	4aa#X 4eeTT\	.
8a#XJ 8e/	.	[
!!LO:PB:g=original
=41	=41	=41
8B/L	8bbL 8dd#X\	<
8bJ 8d#X/	16ffL 16dd#\	.
.	16ffJJ 16dd#\	.
8bL 8d#/	8ffL 8dd#\	.
8bJ 8d#/	8bbJ 8dd#\	.
8A/L	4ccc 4eet\	.
8ccJ 8e/	.	.
=42	=42	=42
8B/L	8bbL 8dd#X\	.
8bJ 8d#X/	8fff#XJ 8dd#\	.
8c/L	2aa#X 2eett\	.
8a#XJ 8e/	.	.
8c#X/L	.	.
8a#J 8e/	.	.
=43	=43	=43
4b 4d#X 4B;/	[4bb 4dd#X;\	[
4r	16bb\LL]	.
.	16gg\	.
.	16ff#X\	.
.	16cc\JJ	.
4r	16b\LL	.
.	16cc\	.
.	16b\	.
.	16ee\JJ	.
*clefF4	*	*
=44	=44	=44
!LO:TX:t=P:problem:mixed beam	!	!
8.DD/L	8.ccL 8.f#X\	f
16dJk 16D\	16ccJk 16f#\	.
8dL 8E\	8ccL 8g\	.
8dJ 8F\	8ccJ 8g#X\	.
8dL 8F#X\	8ccL 8a\	.
8dJ 8D\	8ccJ 8f#X\	.
=45	=45	=45
8GG\L	8.bL 8.g\	.
8BJ 8D\	.	.
.	16dd\Jk	.
8.BL 8.D\	4.gg\	.
16d^^\Jk	.	.
4g^^\	.	.
.	8b\	.
=46	=46	=46
8C\L	8b\L	.
8eJ 8A\	8a\J	.
8C#X\L	8ff#X\L	.
8gJ 8A\	8ee\J	.
8D\L	8dd\L	.
!LO:TX:a:t=P:problem:8C# skreślone ołówkiem i dopisane 8G	!	!
8f#XJ 8cn\	8cc\J	.
=47	=47	=47
8GG\L	16b\LL	.
.	16cc\	.
!LO:TX:a:t=P:problem:8C# skreślone ołówkiem i dopisane 8G	!	!
8B-XJ 8C#X\	16cc#X\	.
.	16ee\JJ	.
!LO:TX:a:t=P:problem:16D skreślone ołówkiem i dopisane 16G	!	!
16BnLL 16D^^\	4.dd\	.
16c^^\	.	.
16c#X^^\	.	.
16e^^\JJ	.	.
8d\L	.	.
!LO:TX:t=P:problem:strzałka łącząca pion w obu rękach	!	!
8D\J	8b 8g\	.
!!LO:LB:g=original
=48	=48	=48
8.dL 8.D\	8.ccL 8.f#X\	.
16dJk 16E-\	16ccJk 16f#\	.
8dL 8E\	8ccL 8g\	.
8dJ 8F\	8ccJ 8g#X\	.
8dL 8F#X\	8ccL 8a\	.
8dJ 8D\	8ccJ 8f#\	.
=49	=49	=49
(8GG\L	8.bL 8.g\	.
8BJ 8D\)	.	.
.	16dd\Jk	.
!LO:TX:i:t=óſemka pauza	!	!
8r	8.gg\L	.
8B 8E\	.	.
.	16g\Jk	.
8cL 8E\	8g\L	.
8c#XJ 8E-X\	8a\J	.
=50	=50	=50
!LO:TX:t=P:problem:mixed beam	!	!
.	32qqb/	.
8DD/L	8dd/L	.
8B\J	8d/J	.
8A#XL 8D\	8c#X/L	.
8B\J	8d/J	.
8D\L	8.b/L	.
8f#XJ 8c\	.	.
.	16a/Jk	.
=51	=51	=51
4c 4D\	4a 4f#X/	.
8BL 8GG\	8g/	.
16G\L	8r	.
16G\JJ	.	.
!	!LO:TX:b:i:t=Da capo al\n     fine e segno il trio	!
8G\L	4r	.
8G\J	.	.
!!LO:LB:g=original
=52||	=52||	=52||
*>D	*>D	*>D
*k[b-]	*k[b-]	*
!	!LO:TX:a:i:t=Trio(due volta)	!LO:DY:t=mezzo forte
8.AL 8.FF\	8.fL 8.c/	mf
16AJk 16F\	16ccJk 16f/	.
4.A 4.F\	4.cc 4.f/	.
8A 8F\	8cc 8f/	.
=53	=53	=53
4G#X 4F\	16bnLL 16f\	.
.	16cc\	.
.	16dd\	.
.	16ff\JJ	.
4.A 4.F\	4.cc 4.f\	.
8A 8F\	8cc 8f\	.
=54	=54	=54
8.A^^L 8.FF\	8.ddL 8.f^^\	.
16AJk 16F\	16ccJk 16f\	.
8AL 8F\	8ccL 8f\	.
8AJ 8F\	8ccJ 8f\	.
8GL 8F\	8b-L 8e\	.
8AJ 8F\	8aJ 8f\	.
=55	=55	=55
8CC/L	16aLL 16e/	.
.	16f#X/	.
8B-J 8C/	16g/	.
.	16cc/JJ	.
4.B- 4.C/	4.g 4.e/	.
8B- 8C/	8e 8c/	.
=56	=56	=56
!	!	!LO:DY:t=piu forte
8.AL 8.FF\	8.fL 8.c/	f
16AJk 16F\	16ccJk 16f/	.
4.A 4.F\	4.cc 4.f/	.
8A 8F\	8cc 8f/	.
=57	=57	=57
4G#X 4F\	16bnLL 16f\	.
.	16cc\	.
.	16dd\	.
.	16ff\JJ	.
4.A 4.F\	4.cc 4.f\	.
8A 8F\	8cc 8f\	.
=58	=58	=58
4G#X 4F\	16bnLL 16f\	.
.	16cc\	.
.	16dd\	.
.	16ff\JJ	.
4.A 4.F\	4.cc 4.f\	.
8A 8F\	8cc 8f\	.
=59	=59	=59
*^	*^	*
8.A|\L 8D\	16ryy	8.ff|:\L 8.a\	16ryy	sf
.	16r	.	16r	.
.	8rr	.	8r	.
16c#X\Jk	.	16ee:Jk 16g:\	.	pp
8d\L	2ryy	8ddL 8f\	2ryy	.
8e\J	.	8ccJ 8g\	.	.
8f\L	.	8bnL 8g#X\	.	.
8f#X\J	.	8ccJ 8a\	.	.
*v	*v	*	*	*
*	*v	*v	*
!!LO:LB:g=original
=60	=60	=60
8g\L	16ccLL 16e\	.
.	16f#X\	.
8G\J	16g\	.
.	16ee\JJ	.
4Bn 4GG\	4dd 4g 4fn\	.
8c 8C\	8cc 8e\	.
8r	8r	.
=61	=61	=61
8.B-XL 8.BB-\	8.ccL 8.e\	f
16B-Jk 16BB-\	16gJk 16e\	.
4.B- 4.BB-\	4.g 4.e\	.
8B- 8BB-\	8g#X 8e\	.
=62	=62	=62
8FF\L	16aLL 16f\	.
.	16g#X\	.
8AJ 8C\	16a\	.
.	16dd\JJ	.
8AL 8C\	4.cc 4.f\	.
8AJ 8C\	.	.
8A 8C\	.	.
8r	8a 8f\	.
=63	=63	=63
8B-L 8C\	8ccL 8e\	.
16B-L 16C\	16gL 16e\	.
16B-JJ 16C\	16gJJ 16e\	.
8B-L 8C\	8gL 8e\	.
8B-J 8C\	8gJ 8e\	.
8B-L 8C\	8gL 8e\	.
8B-J 8C\	8g#XJ 8e\	.
=64	=64	=64
8FF\L	16aLL 16f\	.
.	16g#X\	.
8AJ 8C\	16a\	.
.	16dd\JJ	.
4.A 4.F\	4.cc 4.f\	.
8A 8E-X\	8cc#X 8g#\	.
=65	=65	=65
8.AL 8.D\	8.ddL 8.f#X\	f
16cJk 16D\	16aJk 16f#\	.
8cL 8D\	8aL 8f#\	.
8cJ 8D\	8aJ 8f#\	<
8cL 8D\	8aL 8f#\	.
8cJ 8D\	8aJ 8f#\	.
=66	=66	=66
8GG\L	16b-LL 16g\	.
.	16a\	.
!	!LO:TX:b:i:t=espress.	!
8B-J 8D\	16b-\	.
.	16dd\JJ	.
4B- 4G\	8ggL 8g\	.
.	8ff\J	.
4Bn 4GG\	8ee\L	.
.	8ddJ 8f\	.
!!LO:LB:g=original
=67	=67	=67
!LO:TX:t=P:problem:mixed beam	!	!
8CC/L	8ddL 8e\	>
8B-X\J	8dd-X\J	.
8A\L	8ccL 8f\	.
8A-X\J	8bn\J	.
8G\L	8b-XL 8d\	.
8C\J	8e\J	]]
=68	=68	=68
4C/	4cc 4e 4B-\	.
4FF/	4f 4A\	.
4r	4r	.
=69:|!	=69:|!	=69:|!
*>E	*>E	*>E
*k[]	*k[]	*
8C\L	16g/LL	f
.	16a/	.
8eJ 8G\	16gM</	.
.	16f#X/JJ	.
8eL 8G\	8g/	.
8eJ 8G\	4ee\	.
4e 4G\	.	.
.	8cc\	.
=70	=70	=70
8C\L	16g/LL	.
.	16a/	.
8eJ 8G\	16gM</	.
.	16f#X/JJ	.
8eL 8G\	8g/	.
16eL 16G\	4gg\	.
16eJJ 16G\	.	.
4e 4G\	.	.
.	8ee\	.
=71	=71	=71
8E\L	16cc\LL	.
.	16dd\	.
8gJ 8c 8G\	16ccM\	.
.	16b\JJ	.
8gL 8c 8G\	8cc\	.
16gL 16c 16G\	4ccc\	.
16gJJ 16c 16G\	.	.
4g 4c 4G\	.	.
.	8bb\	.
=72	=72	=72
.	32qqbb/	.
8D\L	16aa\LL	.
.	16gg#X\	.
8fJ 8A 8G\	16aa\	.
.	16ff\JJ	.
.	32qqggn/	.
8D\L	16ff\LL	.
.	16ee\	.
8fJ 8B-X 8G\	16ff\	.
.	16dd\JJ	.
.	32qqee/	.
8D 8GG\L	16dd\LL	.
.	16cc#X\	.
8fJ 8Bn 8G\	16dd\	.
.	16a\JJ	.
=73	=73	=73
8C\L	16g/LL	.
.	16a/	.
8eJ 8G\	16gM</	.
.	16f#X/JJ	.
8eL 8G\	8g/	.
16eL 16G\	4ee\	.
16eJJ 16G\	.	.
4e 4G\	.	.
.	8cc\	.
!!LO:LB:g=original
=74	=74	=74
8C\L	16cc\LL	.
.	16dd\	>
8eJ 8A#X\	16cc\	.
.	16b\JJ	.
!LO:TX:t=P:problem:mixed beam	!	!
8eL 8A#\	8cc\	.
*clefG2	*	*
8a#XJ 8e/	4ccc\	.
4a# 4e/	.	.
.	8aa#X\	]
=75	=75	=75
.	32qqccc\	.
8B/L	16bb\LL	p
.	16aa#X\	.
8gJ 8e/	16bb\	.
.	16gg\JJ	.
.	32qqaa#\	.
8B/L	16gg\LL	.
.	16ff#X\	.
!LO:TX:a:t=P:problem:8a skreślone ołówkiem i dopisane 8g	!	!
8aJ 8e/	16gg\	.
.	16ee\JJ	.
.	32qqff#\	.
8B/L	16ee\LL	.
.	16dd#X\	.
!LO:TX:a:t=P:problem:8a# skreślone ołówkiem i dopisane 8g	!	!
8a#XJ 8e/	16ee\	.
.	16cc\JJ	.
*clefF4	*	*
=76	=76	=76
.	32qqcc/	.
8BB\L	16b\LL	.
.	16a#X\	.
8d#X\J	16b\	.
.	16gg\JJ	.
8r	4ff 4b 4an\	.
8BB\L	.	.
8E\J	8ee 8b 8g\	.
8r	8r	.
=77	=77	=77
!LO:TX:t=P:problem:mixed beam	!	!
8GG 8CC/L	16g/LL	ff
.	16a/	.
8eJ 8c 8G 8E\	16gM</	.
.	16f#X/JJ	.
8eL 8c 8G 8E\	8g/	.
8eJ 8c 8G 8E\	4ee\	.
4e 4c 4G 4E\	.	.
.	8cc\	.
=78	=78	=78
!LO:TX:t=P:problem:mixed beam	!	!
8GGL 8CC/	16g/LL	.
.	16a/	.
8eJ 8c 8G 8E\	16gM</	.
.	16f#X/JJ	.
8eL 8c 8G 8E\	8g/	.
8eJ 8c 8G 8E\	4gg\	.
4e 4c 4G 4E\	.	.
.	8ee\	.
=79	=79	=79
!LO:TX:t=P:problem:mixed beam	!	!
8EL 8EE/	16cc\LL	.
.	16dd\	.
8eJ 8c 8G\	16ccM\	.
.	16b\JJ	.
8eL 8c 8G\	8cc\	.
8eJ 8c 8G\	4ccc\	.
4e 4c 4G\	.	.
.	8bb\	.
!!LO:PB:g=original
=80	=80	=80
.	32qqbb/	.
!LO:TX:t=P:problem:mixed beam	!	!
8DL 8DD/	16aa\LL	.
.	16gg#X\	.
8fJ 8A 8G\	16aa\	.
.	16ff\JJ	.
.	32qqggn/	.
8fL 8A 8G\	16ff\LL	.
.	16ee\	.
8fJ 8B-X 8G\	16ff\	.
.	16dd\JJ	.
.	32qqee/	.
8fL 8B-X 8G\	16dd\LL	.
.	16cc#X\	.
8fJ 8Bn 8G\	16dd\	.
.	16a\JJ	.
=81	=81	=81
!LO:TX:t=P:problem:mixed beam	!	!
8CL 8CC/	16g/LL	.
.	16a/	.
8eJ 8c 8G 8E\	16gM</	.
.	16f#X/JJ	.
8eL 8c 8G 8E\	8g/	.
8eJ 8c 8G 8E\	4ee/	.
4e 4c 4G 4E\	.	.
.	8cc/	.
=82	=82	=82
!LO:TX:t=P:problem:bemole przed kreską taktową	!	!
8B-XL 8BB-X\	16cc\LL	<
.	16dd\	.
8gJ 8e 8c 8B-\	16ccM\	.
.	16b\JJ	.
8gL 8e 8c 8B-\	8cc\	.
8gJ 8e 8c 8B-\	4ccc\	.
4g 4e 4c 4B-\	.	.
.	8ee\	.
=83	=83	=83
8AL 8AA\	16cc\LL	.
.	16dd\	.
8aJ 8f 8c 8A\	16ccM\	.
.	16b\JJ	.
8aL 8f 8c 8A\	8cc\	.
8aJ 8f 8c 8A\	4ccc\	.
4a 4f 4c 4A\	.	.
.	8ff\	.
=84	=84	=84
8A-XL 8AA-X\	16cc\LL	.
.	16dd\	.
8a-XJ 8f#X 8c 8A-\	16cc\	.
.	16b\JJ	.
8a-L 8f# 8c 8A-\	8cc\	.
8a-J 8f# 8c 8A-\	4ccc\	.
4a- 4f# 4c 4A-\	.	.
.	8ff#X\	[[
=85	=85	=85
8GG\L	8gg\L	ff
8fJ 8G\	16ddL 16b\	.
.	16ddJJ 16b\	.
8BB\L	8ddL 8b\	.
8fJ 8G\	8ddJ 8b\	.
8GG\L	8ddL 8b\	.
8fJ 8G\	8dd#XJ 8b\	.
!!LO:LB:g=original
=86	=86	=86
8C\L	16eeLL 16cc\	.
.	16dd#X\	.
8eJ 8G\	16ee\	.
.	16aa\JJ	.
8GG\L	4.gg 4.cc\	.
8eJ 8G\	.	.
8C\L	.	.
8eJ 8G\	8ee 8cc\	.
=87	=87	=87
8D\L	8gg\L	.
8fJ 8G\	16ddL 16b\	.
.	16ddJJ 16b\	.
8GG\L	8ddL 8b\	.
8fJ 8G\	8ddJ 8b\	.
!	!LO:TX:a:t=P:problem:8b skreślone ołówkiem i dopisane 8g	!
8D\L	8ddL 8b\	.
!	!LO:TX:a:t=P:problem:8b skreślone ołówkiem i dopisane 8g	!
8fJ 8G\	8dd#XJ 8b\	.
=88	=88	=88
8C\L	16eeLL 16cc\	.
.	16dd#X\	.
8eJ 8G\	16ee\	.
.	16aa\JJ	.
8eL 8G\	4.gg 4.cc\	.
8eJ 8c^^\	.	.
8BB-X\L	.	.
8eJ 8B-X\	8gg#X 8dd#\	.
=89	=89	=89
8AA\L	8aaL 8cc#X^^<\	.
8gJ 8A\	16eeL 16cc#\	.
.	16eeJJ 16cc#\	.
8C#X\L	8eeL 8cc#\	.
8gJ 8A\	8eeJ 8cc#\	.
8AA\L	8eeL 8cc#\	.
8gJ 8A\	8eeJ 8cc#\	.
=90	=90	=90
8D\L	16ffLL 16dd\	.
.	16ee\	.
8fJ 8A\	16ff\	.
.	16ddd\JJ	.
8fL 8A\	4.aa 4.dd\	.
8fJ 8d^^\	.	.
8C\L	.	.
8f#XJ 8c\	8aa#X 8ee\	.
=91	=91	=91
8BB\L	8bbL 8dd#X^^<\	.
8aJ 8B\	16ff#XL 16dd#\	.
.	16ff#JJ 16dd#\	.
8D#X\L	8ff#L 8dd#\	.
8aJ 8B\	8ff#J 8dd#\	.
8BB\L	8ff#L 8dd#\	.
8aJ 8B\	8ff#J 8dd#\	.
=92	=92	=92
8E\L	16eeLL 16g#X\	pp
.	16dd#X\	.
8eJ 8G#X\	16ee\	.
.	16eee\JJ	.
8eL 8G#\	8ee\L	.
8eJ 8G#\	8ee\J	.
8F\L	4dd#X 4aTT\	.
8d#XJ 8A\	.	.
!!LO:LB:g=original
=93	=93	=93
8E\L	16eeLL 16g#X\	.
.	16dd#X\	.
8eJ 8G#X\	16ee\	.
.	16eee\JJ	.
8eL 8G#\	8ee\L	.
8eJ 8G#\	8ee\J	.
8D#X\L	4ff 4aTT\	.
8fJ 8A\	.	.
=94	=94	=94
8E\L	16eeLL 16g#X\	.
.	16dd#X\	.
8eJ 8G#X\	16ee\	.
.	16eee\JJ	.
8eL 8G#\	8ee\L	.
8eJ 8G#\	8ee\J	.
8F\L	4dd#X 4aTT\	<.
8d#XJ 8A\	.	.
=95	=95	=95
8E\L	16eeLL 16g#X\	.
.	16dd#X\	.
8eJ 8G#X\	16ee\	.
.	16eee\JJ	.
8eL 8G#\	8ee\L	.
8eJ 8G#\	8ee\J	.
8D#X\L	4ff 4aTT\	.
8fJ 8A\	.	[[
=96	=96	=96
8E\L	16eeLL 16g#X\	.
.	16dd#X\	<
8eJ 8G#X\	16ee\	.
.	16eee\JJ	.
8F\L	2dd# 2aTT\	.
8d#XJ 8A\	.	.
8F#X\L	.	.
8d#J 8A\	.	.
=97	=97	=97
4e 4G#X 4E;\	[4ee 4g#X;\	.
4r	16ee\LL]	.
.	16ccc\	.
.	16bb\	.
.	16ff\JJ	.
4r	16ee\LL	.
.	16ff\	.
.	16ee\	.
.	16a\JJ	.
=98	=98	=98
!LO:TX:t=P:problem:mixed beam	!	!
8.GGG/L	8.ffL 8.b 8.f\	fff
16GJk 16GG\	16ffJk 16b 16f\	.
!	!LO:TX:b:i:t=grandioso	!
8AL 8AA\	8ffL 8cc 8f\	.
8B-XJ 8BB-X\	8ffJ 8cc#X 8f\	.
8BnL 8BBn\	8ffL 8dd 8f\	.
8GJ 8GG\	8ffJ 8b 8f\	.
!!LO:LB:g=original
=99	=99	=99
8CC\L	8.eeL 8.cc 8.e\	.
8eJ 8c 8G 8E\	.	.
.	16ggJk 16g\	.
8eL 8c 8G 8E\	4.ccc 4.cc\	.
8eJ 8c 8G 8E\	.	.
4e 4c 4G 4E\	.	.
.	8ee 8cc 8e\	.
=100	=100	=100
8FF\L	8eeL 8a 8e\	.
8AJ 8D\	8ddJ 8d\	.
8FF#X\L	8bbL 8dd 8b\	.
8cJ 8A 8D\	8aaJ 8a\	.
8GG\L	8ggL 8b 8g\	.
8BJ 8G 8D\	8ffJ 8f\	.
=101	=101	=101
8CC\L	16eeLL 16cc 16e\	.
.	16ff 16f\	.
8d#XJ 8c 8F 8D#X\	16ff#X 16f#X\	.
.	16aaJJ 16a\	.
8.eL 8.c 8.G 8.E\	4.gg 4.cc 4.g\	.
16GG\Jk	.	.
4GGG/	.	.
.	8ee 8cc 8e\	.
=102	=102	=102
!LO:TX:t=P:problem:mixed beam	!	!
8.GGG/L	8.ffL 8.b 8.f\	.
16GJk 16GG\	16ffJk 16b 16f\	.
8AL 8AA\	8ffL 8cc 8f\	.
8B-XJ 8BB-X\	8ffJ 8cc#X 8f\	.
8BnL 8BBn\	8ffL 8dd 8f\	.
8GJ 8GG\	8ffJ 8b 8f\	.
=103	=103	=103
8AA\L	8.eeL 8.cc 8.e\	.
8cJ 8E\	.	.
.	16cccJk 16cc\	.
!LO:TX:a:i:t=lunga	!	!
4c;\	4ccc 4cc;\	.
8AA\L	8ccL 8f 8c\	.
8AA-X\J	8ddJ 8f#X\	.
=104	=104	=104
8.GG\L	8.eeL 8.g 8.c\	fff
16eJk 16G\	16ggJk 16cc 16g\	.
8eL 8G\	8ggL 8cc 8g\	.
8e-X\J	8ff#XJ 8cc 8a\	.
!LO:TX:t=P:problem:mixed beam	!	!
8.d-X\L	8.ffnL 8.b 8.a\	.
16GG/Jk	16bJk 16g 16f\	.
!!LO:LB:g=original
=105	=105	=105
(4GG^^</	(4dd 4b 4g 4f^^\	.
8CC/)	8cc 8g 8e\)	.
8r	4r	.
4r	.	.
!	!LO:TX:b:i:t=Fine.	!
.	8r	.
==	==	==
*-	*-	*-
!!!system-decoration: {(s1,s2)}
!!!RDF**kern: > = above
!!!RDF**kern: < = below
!!!RDF**kern: | = vertical stroke
!!!RDF**dynam: p = "p."
!!!ENC: Marta Lawrence
!!!END: 2021-05-22
!!!ENC:Anastazja Marusiak
!!!END:2021-04-30
